X:21
T:Bonnie Kate
M:4/4
L:1/8
K:D
dB |: "D" A2 (dA "G" B2) A(F | "D" DF)AF "A" E(A,CE) |
"D" DF[FA]F "G" GBe(d | "A" cA)Bc "D" (d2 d)(B |
"D" A2) dA "G" (Bd)(AF) | "D" DF[FA]F "G" (GFE)(F |
"D" DF)[AF]F "G" GBe(d |1 "A" cA)Bc "D" (d2 d)B :|2 "A" cA)Bc "D" defg |
|: "D" (a2 f)(d Ad)ef | "G" g>g g(e "A" cd)e(f |
"A7" g2) (gf g)(bag) | "D" (fgf)e d(efg) |
(a2 f)(d Ad)ef | "G" (gfe)(d "A" cd)e(f |
"A7" g2) (gf g)(bag) |1 "D" (fgf)e d(efg) :|2 "D" (fgf)e d4 |]
N:Katie Swenson;  maybe capoed?

